X:1
T: Cherish the Ladies
C:
R:Jig
Q:180
K:D
M:6/8
L:1/16
|:(3ABc|d2F2F2 A2F2F2|D2F2A2 A2G2F2|B2E2E2 G2E2E2|G2B2A2 G2F2E2|d2F2F2 A2F2F2|D2F2A2 A2F2A2|B2c2d2 e2f2g2|f2d2d2 d4:|
|:(3ABc|d2f2d2 c2e2c2|d2f2d2 A2G2F2|B2E2E2 G2E2E2|G2B2A2 G2F2E2|d2f2d2 c2e2c2|d2f2d2 A2G2F2|B2c2d2 e2f2g2|f2d2d2 d4:|
|:A2|d2f2d2 c2e2c2|d2f2d2 A2F2D2|B2z2E2 G2z2E2|G2B2A2 G2F2E2|d2G2d2 c2F2c2|d2G2d2 A4G2|A3Bcd e2f2g2|f2d2d2 d4:|
B2|:A2d2d2 f2d2d2|a2d2d2 f2d2d2|ABc2d2 g2f2g2|e2c2e2 g2f2e2|a2g2f2 b2g2e2|a2f2d2 c2B2A2|(3fgaB4 A2G2F2|G2E2F2 G2F2E2:|
|:f4f2 a2f2d2|f2e2d2 c2d2e2|g4g2 g2f2g2|e2c2e2 g2f2e2|a2g2f2 b2g2e2|a2f2d2 c2B2A2|f2d2B2 A2G2F2|G2E2F2 G2F2E2:|
D2F2A2 d2A2F2|D2F2A2 B2G2E2|D2F2A2 d2A2F2|G2E2F2 G2F2E2|D2F2A2 D2G2B2|D2F2A2 d4e2|f2d2B2 A2G2F2|1G2E2F2 G2F2E2:|2G2E2F2 D4||
